X: 72
T: Msza Święta - Benedictus
C: Józef Stefani
%%abc-version 2.0
%%abcx-abcm2ps-target-version 5.9.1 (29 Sep 2008)
%%abc-creator hum2abc beta
%%abcx-conversion-date 2021/10/04 07:38:41
%%abc-edited-by Andrzej Gręziak
%%abc-edited-by Kamil Watkowski
%%abcx-initial-encoding-date 2021-08-13
%%humdrum-veritas 2530727824
%%humdrum-veritas-data 1311786942
%%linebreak <none>
%%barnumbers 0
L: 1/4
M: C
N: Derived from pl-kozmzk--mzk-m-26--007_stefani-jozef-msza-swieta-benedictus.krn
Q: "Allegretto."
V: 1 clef=tenor
V: 2 clef=tenor
V: 3 clef=bass
V: 4 clef=tenor
V: 5 clef=bass
V: 6 clef=treble
V: 7 clef=bass
K: Eb
[V:1] B,2C3/E/ | 
[V:2] G,2A,3/C/ | 
[V:3] E,2-E,3/E,/ | 
[V:4] x4 | 
[V:5] x4 | 
[V:6] x4 | 
[V:7] x4 | 
[V:1] B,>G,B,E | 
[V:2] G,>E,G,G, | 
[V:3] E,2E,E, | 
[V:4] x4 | 
[V:5] x4 | 
[V:6] x4 | 
[V:7] x4 | 
[V:1] ED/C/B,A, | 
[V:2] F,2F,F, | 
[V:3] B,,>C,D,D, | 
[V:4] x4 | 
[V:5] x4 | 
[V:6] x4 | 
[V:7] x4 | 
[V:1] G,/C/B,/ G,/ F,/G,/A,/ =A,/ | 
[V:2] E,/A,/G,/ E,/ D,/E,/F,/ ^F,/ | 
[V:3] E,>E,B,,z | 
[V:4] x4 | 
[V:5] x4 | 
[V:6] x4 | 
[V:7] x4 | 
[V:1] B,2C3/E/ | 
[V:2] G,2A,3/C/ | 
[V:3] zE,E,E,/ E,/ | 
[V:4] x4 | 
[V:5] x4 | 
[V:6] x4 | 
[V:7] x4 | 
[V:1] B,>G,B,C | 
[V:2] G,>E,G,G, | 
[V:3] E,>E,E,E, | 
[V:4] x4 | 
[V:5] x4 | 
[V:6] x4 | 
[V:7] x4 | 
[V:1] D3//E/8D/8 C/ D< {/F}EC/ | 
[V:2] B,3//C/8B,/8 A,/ B,< {/D}C=A,/ | 
[V:3] F,F,/ F,<F,F,/ | 
[V:4] x4 | 
[V:5] x4 | 
[V:6] x4 | 
[V:7] x4 | 
[V:1] DzzD3// F// | 
[V:2] B,zzB,3// _A,// | 
[V:3] B,,D,/> F,/B,,B,,3// B,,// | 
[V:4] x4 | 
[V:5] x4 | 
[V:6] x4 | 
[V:7] x4 | 
[V:1] EB,2F3//D// | 
[V:2] G,G,2A,3//F,// | 
[V:3] B,,B,,2B,, | 
[V:4] x4 | 
[V:5] x4 | 
[V:6] x4 | 
[V:7] x4 | 
[V:1] EB,/> G/ F/E/ D3// C// | 
[V:2] G,G,/> E/ D/C/ B,3// A,// | 
[V:3] E,E,/> E,/E,E,3// E,// | 
[V:4] x4 | 
[V:5] x4 | 
[V:6] x4 | 
[V:7] x4 | 
[V:1] B,7//A,/8G,/8A,B, | 
[V:2] G,7//F,/8E,/8F,F, | 
[V:3] E,3D, | 
[V:4] x4 | 
[V:5] x4 | 
[V:6] x4 | 
[V:7] x4 | 
[V:1] G,2!accent!!trill!=A,2{/G,A,} | 
[V:2] E,2!accent!E,2 | 
[V:3] E,2!accent!C,2 | 
[V:4] x4 | 
[V:5] x4 | 
[V:6] x4 | 
[V:7] x4 | 
[V:1] B,/F,/ B,/ C/ D/C//D/< {/F} E/ C// | 
[V:2] F,F,/ G,/ B,/A,//B,/< {/D} C/ =A,// | 
[V:3] D,D,/ E,/F,-F,3// F,// | 
[V:4] z4 | 
[V:5] z4 | 
[V:6] z4 | 
[V:7] z4 | 
[V:1] B,zz2 | 
[V:2] B,zz2 | 
[V:3] B,zz2 | 
[V:4] zD/> D/D2 | 
[V:5] zD,/> D,/D,2 | 
[V:6] z[d3D3]- | 
[V:7] z[D,3D,,3] | 
[V:1] zD/> D/CB,3// B,// | 
[V:2] zB,/> B,/=A,G,3// G,// | 
[V:3] zD,/> D,/D,D,3// D,// | 
[V:4] D,zz2 | 
[V:5] D,zz2 | 
[V:6] [dD][dB][c=A][BG] | 
[V:7] [D,D,,][DB,][C=A,][B,G,] & xD,3- | 
[V:1] =A,B,A,z | 
[V:2] ^F,=G,F,z | 
[V:3] D,2D,z | 
[V:4] z2zD | 
[V:5] z2zD, | 
[V:6] [=A^F][BG][AF][dD] | 
[V:7] [=A,^F,][B,G,][A,F,][D,D,,] & D,3x | 
[V:1] z2zE | 
[V:2] z2zC | 
[V:3] z2z_E, | 
[V:4] E>E,E,z | 
[V:5] E,>E,E,z | 
[V:6] [e3E3][_ec] | 
[V:7] [E,3E,,3][_EC] & x3_E,- | 
[V:1] DC/> C/B,C | 
[V:2] B,_A,/> A,/G,A, | 
[V:3] E,E,/> E,/E,E, | 
[V:4] z4 | 
[V:5] z4 | 
[V:6] [dB][c_A][BG][cA] | 
[V:7] [DB,][C_A,][B,G,][CA,] & E,4 | 
[V:1] B,zz2 | 
[V:2] G,zz2 | 
[V:3] E,zz2 | 
[V:4] zE/> E/=E2 | 
[V:5] zE,/> E,/=E,2 | 
[V:6] [BG][eE][=e2=E2] | 
[V:7] [B,G,][E,E,,][=E,2=E,,2] & E,x3 | 
[V:1] z=E/> E/DC3// C// | 
[V:2] zC/> C/=B,=A,3// A,// | 
[V:3] z=E,/> E,/E,E,3// E,// | 
[V:4] =E,zz2 | 
[V:5] =E,zz2 | 
[V:6] [=e=E][ec][e=B][c=A] | 
[V:7] [=E,=E,,][=EC][D=B,][C=A,] & xE,3 | 
[V:1] =B,CB,z | 
[V:2] ^G,=A,G,z | 
[V:3] =E,2E,z | 
[V:4] z2z=E | 
[V:5] z2z=E, | 
[V:6] [=B^G][c=A][BG][=e=E] | 
[V:7] [=B,^G,][C=A,][B,G,][=E,=E,,] & =E,2-E,x | 
[V:1] z2zF | 
[V:2] z2zD | 
[V:3] z2zF, | 
[V:4] F>>F,F,z | 
[V:5] F,>>F,F,z | 
[V:6] [f3F3][fd] | 
[V:7] [F,3F,,3][FD] & x3F, | 
[V:1] ED/> D/CD | 
[V:2] CB,/> B,/=A,B, | 
[V:3] E,F,/> F,/F,F, | 
[V:4] z4 | 
[V:5] z4 | 
[V:6] [ec][dB][c=A][dB] | 
[V:7] [EC][DB,][C=A,][DB,] & F,4 | 
[V:1] C2^CD3// F// | 
[V:2] =A,3B,3// _A,// | 
[V:3] F,3B,,3// B,,// | 
[V:4] z4 | 
[V:5] z4 | 
[V:6] [c2=A2F2]zd3//f// & x3B3//_A// | 
[V:7] [C2=A,2F,2]z[B,B,,] | 
[V:1] FE2F3//D// | 
[V:2] G,G,2A,3//F,// | 
[V:3] B,,B,,2B,, | 
[V:4] zxB,2 & x[G,/E,/]> [G,/E,/]G,F, | 
[V:5] zB,,/> B,,/B,,2 | 
[V:6] [fA][e2G2][f3//A3//][d//F//] | 
[V:7] [B,4B,,4] | 
[V:1] EB,/> G/ F/E/ D3// C// | 
[V:2] G,G,/> E/ D/C/ B,3// A,// | 
[V:3] E,E,/> E,/E,E,3// E,// | 
[V:4] B,>zz2 & G,>xx2 | 
[V:5] E,>zz2 | 
[V:6] [eG][B/G/] z/z2 | 
[V:7] [B,-E,][B,/E,/] z/z2 | 
[V:1] B,3/A,//G,//A,B, | 
[V:2] G,3/F,//E,//F,F, | 
[V:3] E,3D, | 
[V:4] z4 | 
[V:5] z4 | 
[V:6] z4 | 
[V:7] z4 | 
[V:1] G,2!accent!C2 | 
[V:2] E,2!accent!A,2 | 
[V:3] E,2!accent!A,,2 | 
[V:4] z2[C2A,2] | 
[V:5] z2[E,2A,,2] | 
[V:6] z2[c2A2E2] | 
[V:7] z2[A,2A,,2] | 
[V:1] B,/G/ F/ E/ E/D/C/ D/ | 
[V:2] G,/B,/ A,/ G,<F,A,/ | 
[V:3] B,,B,,/ B,,<B,,=B,,/ | 
[V:4] [B,//G,//] [B,//G,//] [B,/G,/]zz2 | 
[V:5] [E,//B,,//] [E,//B,,//] [E,/B,,/]zz2 | 
[V:6] [BGE]zzz/ [d/A/F/] | 
[V:7] [B,B,,]zzz/ [=B,/=B,,/] | 
[V:1] E2!accent!C2 | 
[V:2] G,2!accent!A,2 | 
[V:3] C,2!accent!A,,2 | 
[V:4] z2!accent![C2A,2] | 
[V:5] z2[E,2A,,2] | 
[V:6] [eGE]z[c2A2E2] | 
[V:7] [CC,]z[A,2A,,2] | 
[V:1] B,/E/ G/> E/!fermata!F3/D/ ||  
[V:2] G,B,/> G,/!fermata!A,3/F,/ ||  
[V:3] B,,B,,/> B,,/!fermata!B,,3/B,,/ ||  
[V:4] [B,G,][B,/G,/]> [B,/G,/]!fermata!D3/B,/ & x2F,3/A,/ ||  
[V:5] [E,B,,][E,/B,,/]> [E,/B,,/][F,3/B,,3/][F,/B,,/] ||  
[V:6] [BGE]z[dAF]!fermata!z ||  
[V:7] [B,B,,]z[B,F,B,,]!fermata!z ||  
[V:1] [M:6/8]Ez/zz/ | 
[V:2] [M:6/8]G,z/zz/ | 
[V:3] [M:6/8]E,E,/G,E,/ | 
[V:4] [M:6/8]z3 | 
[V:5] [M:6/8]zE,/G,E,/ | 
[V:6] [M:6/8]zE/GE/ | 
[V:7] [M:6/8]zE,/G,E,/ | 
[V:1] z3 | 
[V:2] z3 | 
[V:3] B,B,/ G,/F,/E,/ | 
[V:4] z3 | 
[V:5] B,B,/ G,/F,/E,/ | 
[V:6] B>GF/E/ | 
[V:7] B,>G,F,/E,/ | 
[V:1] x3 | 
[V:2] x3 | 
[V:3] B,x2 | 
[V:4] zz/[F3/D3/] | 
[V:5] B,3/B,3/ | 
[V:6] B3/[f3/d3/B3/] | 
[V:7] B,3/[B,3/F,3/B,,3/] | 
[V:1] x3 | 
[V:2] x3 | 
[V:3] x3 | 
[V:4] [GE][E/G,/] [E/G,/][F/B,/] [G/B,/] | 
[V:5] E,E,/ E,/B,,/ E,/ | 
[V:6] [geB][e/B/G/] [e/B/G/][f/d/B/][g/e/B/] | 
[V:7] [B,G,E,]>[B,G,E,][B,/F,/B,,/][B,/G,/E,/] | 
[V:1] x3 | 
[V:2] x3 | 
[V:3] x3 | 
[V:4] [FD]>[FD] [F/D/] [F/D/] | 
[V:5] [B,B,,]>[B,B,,] B,/ B,/ | 
[V:6] [f3/d3/B3/]-[fdB][f/d/B/] | 
[V:7] [B,3/F,3/B,,3/]-[B,F,B,,][B,/F,/B,,/] | 
[V:1] x3 | 
[V:2] x3 | 
[V:3] x3 | 
[V:4] [GE][E/G,/] [E/G,/][F/B,/][G/B,/] | 
[V:5] E,E,/ E,/B,,/E,/ | 
[V:6] [geB][e/B/G/] [e/B/G/][f/d/B/][g/e/B/] | 
[V:7] [B,G,E,]>-[B,G,E,][B,/F,/B,,/][B,/G,/E,/] | 
[V:1] x3 | 
[V:2] x3 | 
[V:3] x3 | 
[V:4] [FD]z/B,3/ | 
[V:5] [B,B,,]z/B,,3/ | 
[V:6] [fdB]z/B3/ | 
[V:7] [B,F,B,,]z/[B,3/B,,3/] | 
[V:1] x3 | 
[V:2] x3 | 
[V:3] x3 | 
[V:4] ED/ C/B,/ A,/ | 
[V:5] E,D,/ C,/B,,/ A,,/ | 
[V:6] ed/ c/B/A/ | 
[V:7] [EE,][D/D,/] [C/C,/][B,/B,,/][A,/A,,/] | 
[V:1] x3 | 
[V:2] x3 | 
[V:3] x3 | 
[V:4] G,3/C3/ | 
[V:5] G,,3/C,3/ | 
[V:6] G3/c3/ | 
[V:7] [G,3/G,,3/][C3/C,3/] | 
[V:1] x3 | 
[V:2] x3 | 
[V:3] x3 | 
[V:4] F,/G,/A,/B,3/ | 
[V:5] F,,/G,,/A,,/B,,3/ | 
[V:6] F/G/A/B3/ | 
[V:7] [F,/F,,/][G,/G,,/][A,/A,,/][B,3/B,,3/] | 
[V:1] x3 | 
[V:2] x3 | 
[V:3] x3 | 
[V:4] E,z/[C3/A,3/] | 
[V:5] E,z/[A,3/A,,3/] | 
[V:6] Ez/[c3/A3/E3/] | 
[V:7] [E,E,,]z/[E,3/A,,3/] | 
[V:1] x3 | 
[V:2] x3 | 
[V:3] x3 | 
[V:4] [EG,]z/[C3/A,3/]- | 
[V:5] E,z/[A,3/A,,3/]- | 
[V:6] [eGE]z/[c3/A3/E3/] | 
[V:7] [E,E,,]z/[E,3/A,,3/] | 
[V:1] x3 | 
[V:2] x3 | 
[V:3] x3 | 
[V:4] C3/E3/ & A,3 | 
[V:5] [A,3/A,,3/]C,3/ & x3/C,3/ | 
[V:6] c3/e3/ & [A3E3] | 
[V:7] E,3 & A,,3/C,3/ | 
[V:1] x3 |]  
[V:2] x3 |]  
[V:3] x3 |]  
[V:4] [B,3G,3] |]  
[V:5] !fermata!E,3 |]  
[V:6] [B3G3E3] |]  
[V:7] [E,3E,,3] |]  


